svgs/regular/display.svg

<svg xmlns="http://www.w3.org/2000/svg" viewBox="0 0 576 512"><!--! Font Awesome Pro 6.6.0 by @fontawesome - https://fontawesome.com License - https://fontawesome.com/license (Commercial License) Copyright 2024 Fonticons, Inc. --><path d="M64 48c-8.8 0-16 7.2-16 16l0 288c0 8.8 7.2 16 16 16l175.5 0c.3 0 .6 0 .8 0l95.2 0c.3 0 .6 0 .8 0L512 368c8.8 0 16-7.2 16-16l0-288c0-8.8-7.2-16-16-16L64 48zM211.7 416L64 416c-35.3 0-64-28.7-64-64L0 64C0 28.7 28.7 0 64 0L512 0c35.3 0 64 28.7 64 64l0 288c0 35.3-28.7 64-64 64l-147.7 0 8 48 51.7 0c13.3 0 24 10.7 24 24s-10.7 24-24 24l-72 0-128 0-72 0c-13.3 0-24-10.7-24-24s10.7-24 24-24l51.7 0 8-48zm48.7 0l-8 48 71.3 0-8-48-55.3 0z"/></svg>

<svg xmlns="http://www.w3.org/2000/svg" viewBox="0 0 576 512"><!--! Font Awesome Pro 6.4.2 by @fontawesome - https://fontawesome.com License - https://fontawesome.com/license (Commercial License) Copyright 2023 Fonticons, Inc. --><path d="M64 48c-8.8 0-16 7.2-16 16V352c0 8.8 7.2 16 16 16H239.5c.3 0 .6 0 .8 0h95.2c.3 0 .6 0 .8 0H512c8.8 0 16-7.2 16-16V64c0-8.8-7.2-16-16-16H64zM211.7 416H64c-35.3 0-64-28.7-64-64V64C0 28.7 28.7 0 64 0H512c35.3 0 64 28.7 64 64V352c0 35.3-28.7 64-64 64H364.3l8 48H424c13.3 0 24 10.7 24 24s-10.7 24-24 24H352 224 152c-13.3 0-24-10.7-24-24s10.7-24 24-24h51.7l8-48zm48.7 0l-8 48h71.3l-8-48H260.3z"/></svg>
